icons/AdobeXdColor.svg

<svg width="16" height="16" viewBox="0 0 16 16" fill="none" xmlns="http://www.w3.org/2000/svg">
<g clip-path="url(#clip0_2179_3715)">
<path d="M0 0V16H16V0H0Z" fill="#FF2BC2"/>
<path d="M11.2334 7.28672C11.3934 7.28672 11.52 7.30672 11.62 7.35338H11.6134V10.6534C11.4867 10.7067 11.3134 10.7267 11.1534 10.7267C10.4067 10.7267 9.83338 10.2334 9.83338 9.00672C9.83338 7.93338 10.3934 7.28672 11.2334 7.28672Z" fill="#2E001E"/>
<path fill-rule="evenodd" clip-rule="evenodd" d="M15.2 0.800049H0.800049V15.2H15.2V0.800049ZM6.36005 7.98005L8.22672 11.6C8.26005 11.6534 8.24005 11.7067 8.18672 11.7067H7.02672C6.95338 11.7067 6.92005 11.6867 6.88672 11.62C6.46005 10.74 6.02672 9.82672 5.58005 8.88005H5.56672C5.16672 9.77338 4.72672 10.7467 4.30005 11.6267C4.26672 11.68 4.23338 11.7 4.18005 11.7H3.07338C3.00672 11.7 3.00005 11.6467 3.03338 11.6067L4.86005 8.09338L3.09338 4.60005C3.05338 4.54672 3.09338 4.50005 3.14005 4.50005H4.28672C4.35338 4.50005 4.38672 4.51338 4.40672 4.57338C4.51787 4.80803 4.62948 5.04175 4.74095 5.27515C5.05067 5.92368 5.35925 6.56982 5.65338 7.22672H5.66672C5.94843 6.58558 6.25137 5.9409 6.55235 5.30042C6.66447 5.06181 6.77634 4.82376 6.88672 4.58672L6.88794 4.58476C6.92055 4.53257 6.94087 4.50005 7.00672 4.50005H8.08005C8.13338 4.50005 8.15338 4.54005 8.12005 4.60005L6.36005 7.98005ZM11.2734 6.29338C9.63338 6.29338 8.63338 7.50672 8.63338 9.06005C8.63338 10.8734 9.66672 11.7667 11.1134 11.7667C11.6734 11.7667 12.26 11.6467 12.82 11.38C12.86 11.36 12.86 11.3534 12.86 11.3067C12.8267 11.0601 12.8267 10.8334 12.8267 10.6534V4.56005C12.8267 4.52672 12.8134 4.50672 12.76 4.50672H11.6867C11.6534 4.50672 11.62 4.53338 11.62 4.57338V6.30672C11.4867 6.29338 11.4134 6.29338 11.2734 6.29338Z" fill="#2E001E"/>
</g>
<defs>
<clipPath id="clip0_2179_3715">
<rect width="16" height="16" fill="white"/>
</clipPath>
</defs>
</svg>

<svg width="16" height="16" fill="none" xmlns="http://www.w3.org/2000/svg"><g clip-path="url(#a)"><path d="M0 0v16h16V0H0z" fill="#FF2BC2"/><path d="M11.233 7.287c.16 0 .287.02.387.066h-.007v3.3c-.126.054-.3.074-.46.074-.746 0-1.32-.494-1.32-1.72 0-1.074.56-1.72 1.4-1.72z" fill="#2E001E"/><path fill-rule="evenodd" clip-rule="evenodd" d="M15.2.8H.8v14.4h14.4V.8zM6.36 7.98l1.867 3.62c.033.053.013.107-.04.107h-1.16c-.074 0-.107-.02-.14-.087-.427-.88-.86-1.793-1.307-2.74h-.013c-.4.893-.84 1.867-1.267 2.747-.033.053-.067.073-.12.073H3.073c-.066 0-.073-.053-.04-.093L4.86 8.093 3.093 4.6c-.04-.053 0-.1.047-.1h1.147c.066 0 .1.013.12.073.11.235.222.469.334.702.31.649.618 1.295.912 1.952h.014c.281-.641.584-1.286.885-1.927l.335-.713v-.002c.034-.052.054-.085.12-.085H8.08c.053 0 .073.04.04.1L6.36 7.98zm4.913-1.687c-1.64 0-2.64 1.214-2.64 2.767 0 1.813 1.034 2.707 2.48 2.707.56 0 1.147-.12 1.707-.387.04-.02.04-.027.04-.073-.033-.247-.033-.474-.033-.654V4.56c0-.033-.014-.053-.067-.053h-1.073a.067.067 0 0 0-.067.066v1.734c-.133-.014-.207-.014-.347-.014z" fill="#2E001E"/></g><defs><clipPath id="a"><path fill="#fff" d="M0 0h16v16H0z"/></clipPath></defs></svg>
